packages/ffe-icons/icons/filled/sm/screenshot_frame.svg

<svg xmlns="http://www.w3.org/2000/svg" height="20" viewBox="0 -960 960 960" width="20"><path d="M278.211-672q-10.979 0-18.594-7.465-7.616-7.465-7.616-18.534v-81.692q0-27.008 18.65-45.658 18.65-18.65 45.658-18.65h81.692q11.069 0 18.534 7.405Q424-829.189 424-818.21q0 10.98-7.465 18.595Q409.07-792 398.001-792h-81.692q-4.616 0-8.463 3.846-3.846 3.847-3.846 8.463v81.692q0 11.069-7.405 18.534Q289.191-672 278.211-672Zm38.098 555.999q-27.008 0-45.658-18.65-18.65-18.65-18.65-45.658v-81.692q0-11.069 7.405-18.534Q266.811-288 277.79-288q10.98 0 18.595 7.465Q304-273.07 304-262.001v81.692q0 4.616 3.846 8.463 3.847 3.846 8.463 3.846h81.692q11.069 0 18.534 7.405Q424-153.191 424-142.211q0 10.979-7.465 18.594-7.465 7.616-18.534 7.616h-81.692ZM682.21-672q-10.98 0-18.595-7.465Q656-686.93 656-697.999v-81.692q0-4.616-3.846-8.463-3.847-3.846-8.463-3.846h-81.692q-11.069 0-18.534-7.405Q536-806.809 536-817.789q0-10.979 7.465-18.594 7.465-7.616 18.534-7.616h81.692q27.008 0 45.658 18.65 18.65 18.65 18.65 45.658v81.692q0 11.069-7.405 18.534Q693.189-672 682.21-672ZM561.999-116.001q-11.069 0-18.534-7.405Q536-130.811 536-141.79q0-10.98 7.465-18.595Q550.93-168 561.999-168h81.692q4.616 0 8.463-3.846 3.846-3.847 3.846-8.463v-81.692q0-11.069 7.405-18.534Q670.809-288 681.789-288q10.979 0 18.594 7.465 7.616 7.465 7.616 18.534v81.692q0 27.008-18.65 45.658-18.65 18.65-45.658 18.65h-81.692Z"/></svg>

<svg xmlns="http://www.w3.org/2000/svg" height="20" viewBox="0 -960 960 960" width="20"><path d="M278.21-672q-10.98 0-18.59-7.47Q252-686.93 252-698v-81.69q0-27.01 18.65-45.66Q289.3-844 316.31-844H398q11.07 0 18.53 7.41 7.47 7.4 7.47 18.38 0 10.98-7.47 18.59Q409.07-792 398-792h-81.69q-4.62 0-8.46 3.85-3.85 3.84-3.85 8.46V-698q0 11.07-7.4 18.53-7.41 7.47-18.39 7.47Zm38.1 556q-27.01 0-45.66-18.65Q252-153.3 252-180.31V-262q0-11.07 7.41-18.53 7.4-7.47 18.38-7.47 10.98 0 18.59 7.47Q304-273.07 304-262v81.69q0 4.62 3.85 8.46 3.84 3.85 8.46 3.85H398q11.07 0 18.53 7.4 7.47 7.41 7.47 18.39t-7.47 18.59Q409.07-116 398-116h-81.69Zm365.9-556q-10.98 0-18.59-7.47Q656-686.93 656-698v-81.69q0-4.62-3.85-8.46-3.84-3.85-8.46-3.85H562q-11.07 0-18.53-7.4-7.47-7.41-7.47-18.39t7.47-18.59Q550.93-844 562-844h81.69q27.01 0 45.66 18.65Q708-806.7 708-779.69V-698q0 11.07-7.41 18.53-7.4 7.47-18.38 7.47ZM562-116q-11.07 0-18.53-7.41-7.47-7.4-7.47-18.38 0-10.98 7.47-18.59Q550.93-168 562-168h81.69q4.62 0 8.46-3.85 3.85-3.84 3.85-8.46V-262q0-11.07 7.4-18.53 7.41-7.47 18.39-7.47t18.59 7.47Q708-273.07 708-262v81.69q0 27.01-18.65 45.66Q670.7-116 643.69-116H562Z"/></svg>
